images/pattern-funky-2-lightened.svg

<svg xmlns="http://www.w3.org/2000/svg" id="Layer_1" width="720" height="720" viewBox="0 0 720 720"><path fill="#446299" d="M0 0h720v720H0z"/><path fill="#e3f6ff" d="M556 0h-58c24 170-128.9 262.1-110 382C552 350 696 191 684 0h-44c-19.1 33.3-63 62.5-84 0z"/><path fill="#ffb9b0" d="M389.3 720s95.2-333.8 27.7-478C344 86 116 382 0 166.2V0h427.9s76 244.8 157.1 212c121-49 45.4 476.5-25 322-87-191-16.4 167 26 186z"/><path fill="#e3f6ff" d="M101.1 140.8s77.1 71 133.9 26.2c47 24-38.8 120.4-66 126-63-39-26-121-105.5-120.2-13.6-20.8 28.8-27.2 37.6-32zM178 604s335.3 149 398 0c-24-56-97.9 4-137.5-26-76.8-58.2-87.5 0-260.5 26z"/><path fill="#ffb9b0" d="M0 720h309c-114-86-132.9-160.6-31-246 136-114 26.7-241.6-23-155C108 575 62 290 0 305z"/><path fill="#fff" d="M0 0h720v720H0z" opacity=".66"/></svg>

<svg id="Layer_1" data-name="Layer 1" xmlns="http://www.w3.org/2000/svg" width="720" height="720" viewBox="0 0 720 720"><title>printmedia-bg</title><rect width="720" height="720" fill="#446299"/><path d="M556,0H498c24,170-128.9,262.1-110,382C552,350,696,191,684,0H640C620.9,33.3,577,62.5,556,0Z" fill="#e3f6ff"/><path d="M389.3,720S484.5,386.2,417,242C344,86,116,382,0,166.2V0H427.9s76,244.8,157.1,212c121-49,45.4,476.5-25,322-87-191-16.4,167,26,186Z" fill="#ffb9b0"/><path d="M101.1,140.8s77.1,71,133.9,26.2c47,24-38.8,120.4-66,126-63-39-26-121-105.5-120.2C49.9,152,92.3,145.6,101.1,140.8Z" fill="#e3f6ff"/><path d="M178,604s335.3,149,398,0c-24-56-97.9,4-137.5-26C361.7,519.8,351,578,178,604Z" fill="#e3f6ff"/><path d="M0,720H309c-114-86-132.9-160.6-31-246,136-114,26.7-241.6-23-155C108,575,62,290,0,305Z" fill="#ffb9b0"/><g opacity="0.66"><rect width="720" height="720" fill="#fff"/></g></svg>
